X: 240
%
U:~=!turn!
T: Honble. Mrs. Maule's Reel
C:R. Macintosh
O:Scotland
B:Keith Norman MacDonald : "The Skye collection of the best reels & strathspeys extant" : 1887
Z:Ralph Palmer
R:Reel
M:C
L:1/8
K:A
e |\
a2 ed cAec | Bcde fBbg | a2 ed cAec | dfed cAA :|
e |\
(c/B/A) (EA) cAec | Bcde fBed | (c/B/A) (EA) cAec | dBed cAAe |
(c/B/A) (EA) cAec | Bcde fBed | cded eaba | afed cAA |]


